X:1
T:Étude, op. 30 no 20
T:Étude, op. 30 no 20
T:Joachim Andersen
C:Joachim Andersen
L:1/8
M:9/8
K:Eb
V:1 treble nm="Flûte" snm="Fl."
V:1
 [ce]2 [cf] [ce]2 [=Ba] [cg]2 [ed'] | [dc']2 [d=b] [^c^a]2 [db] [fe']2 [fd'] | %2
 [d=b]2 [ec'] [=Bd']2 [ce'] [af']2 [a^f'] | [gg']2 [g=f'] [gd']2 [f=b] [da]2 [dg] | %4
 [ce]2 [cf] [ce]2 [=Ba] [cg]2 [^c_b] | [d=a]2 [=e^g] [fa]2 [fd'] [af']2 [=g=e'] | %6
 [fd']2 [B^g] [=A=a]2 [Ba] [=Ba]2 [^ca] | [d=a]2 [c_a] [=Bg]2 [Gg] [Ag][=Ag][Bg] | %8
 [ce]2 [cf] [ce]2 [=Ba] [cg]2 [ed'] | [dc']2 [d=b] [^c^a]2 [db] [fe']2 [fd'] | %10
 [d=b]2 [ec'] [=Bd']2 [ce'] [af']2 [a^f'] | [gg']2 [g=f'] [gd']2 [f=b] [da]2 [dg] | %12
 [ce]2 [cf] [ce]2 [=Ba] [cg]2 [ec'] | [db]2 [ec'] [db]2 [^fe'] [gd']2 [bg'] | %14
 [=Ae]2 [Gf] [Ge]2 [^Fd] [B^c]2 [Ad] | [Gg]2 [db] [^c=a]2 [=c^f] [Bg]2 z | %16
 [fa]2 [gb] [fa]2 [ea] [da]2 [c^f] | [=Bg]2 [d=b] [fd']2 [=e^c'] [_e=c']2 [db] | %18
 [c_a]2 [c^f] [=Bg]2 [_B=e] [=A=f]2 [_A^f] | [Gg]2 [e^f] [d=f]2 [ce] [=Bd]2 z | %20
 [fa]2 [gb] [fa]2 [ea] [da]2 [c^f] | [=Bg]2 [d=b] [fd']2 [af'] [fd']2 [ec'] | %22
 [d=b]2 [ca] [=Bg]2 [c^f] [d=f]2 [^c=e] | [=c_e]2 [=Bd] [^A^c]2 [Bd] [Gg]2 z | %24
 [ce]2 [Bg] [=A_g]2 [_Af] [Ge]2 [=Bd] | [ce]2 [Bg] [=A_g]2 [_Af] [Ge]2 [=Bd] | %26
 [ce]2 [B=e] [Af]2 [Gg] [Fa]2 [D=b] | [Ec']2 [=Eb] [Fa]2 [Bg] [=A^f]2 [_A=f] | %28
 [Ge]2 [cg] [cg]2 [ec'] [ec']2 [ge'] | [ge']2 [c'g'] [c'g']2 [ae'] [ge']2 [ec'] | %30
 [Gd]2 [dg] [dg]2 [g=b] [gb]2 [bd'] | [=bd']2 [gb] [gb]2 [fg] [fg]2 [=Bf] || %32
 [ce]2 [cf] [ce]2 [=Ba] [cg]2 [ed'] | [dc']2 [d=b] [^c^a]2 [db] [fe']2 [fd'] | %34
 [d=b]2 [ec'] [=Bd']2 [ce'] [af']2 [a^f'] | [gg']2 [g=f'] [gd']2 [f=b] [da]2 [dg] | %36
 [ce]2 [cf] [ce]2 [=Ba] [cg]2 [^c_b] | [d=a]2 [=e^g] [fa]2 [fd'] [af']2 [=g=e'] | %38
 [fd']2 [B^g] [=A=a]2 [Ba] [=Ba]2 [^ca] | [d=a]2 [c_a] [=Bg]2 [Gg] [Ag][=Ag][Bg] | %40
 [ce]2 [cf] [ce]2 [=Ba] [cg]2 [ed'] | [dc']2 [d=b] [^c^a]2 [db] [fe']2 [fd'] | %42
 [d=b]2 [ec'] [=Bd']2 [ce'] [af']2 [a^f'] | [gg']2 [g=f'] [gd']2 [f=b] [da]2 [dg] | %44
 [ce]2 [B=e] [=Af]2 [_A^f] [Gg]2 [^F^g] | [F=a]2 [D=b] [Ec']2 [G_b] [F_a]2 [Eg] | %46
 [A^f]2 [Gg] [Ag]2 [=Ag] [Bg]2 [=Bg] | [cc']2 [^Fe] [Ge]2 [ca] [=Bg]2 [d=b] | %48
 [cc']2 [^Fe] [Ge]2 [ca] [=Bg]2 [=FB] | [Ec]2 [ca] [cg]2 [Gf] [Ge]2 [Ed] | %50
 [Ec]3- [Ec]2 [Ac] [Gc]2 [F=B] | [Ec]3- [Ec]2 [Ac] [Gc]2 [F=B] | %52
 [Ec]2 [Gf] [Ge]2 [=Ba] [cg]2 [ed'] | [ec']6- [ec']3 |] %54

